X:1
T:Title
%%score { 1 | 2 }
L:1/8
M:2/2
K:G
V:1 treble nm="Grand Piano"
V:2 bass 
V:1
 z4 z2[Q:1/4=110] [B,D]2 | [B,DG]2 [DGB]2 [DGB]3 [CFA] | [CFA]2 [B,G]4 [G,DF]2 | %3
 [G,CE]2 [G,C^D]2 [G,CE]2 [G,CD]2 | [G,CE]2 [CEA]4 [E^GB]2 | [EAc]2 [DGB]2 [B,DG]2 [GB]2 | %6
 [GB]2 A2 G2 F2 |[M:9/8] G8- G |[M:1/4] D2 |[M:4/4] G2 B2 [DGB]3 [CFA] | [CFA]2 [B,G]4 [G,DF]2 | %11
 [G,CE]2 [G,C^D]2 [G,CE]2 [G,CD]2 | [G,CE]2 [CEA]4 [E^GB]2 | [EAc]2 [DGB]2 [B,DG]2 [DGB]2 | %14
 [DGB]2 [CDA]2 [B,DG]2 [A,DF]2 |[M:9/8] [B,DG]8- [B,DG] |[M:4/4] [EA]2 z2 [E^GB]2 z2 | [EAc]4 z4 | %18
 [B,G]4 [DFA]4 | [DGB]6 z2 | G2 G2 G2 G2 | G2 G2 F2 G2 |[M:9/8] [A,FA]8- [A,FA] |[M:1/4] [B,D]2 | %24
[M:4/4] [B,DG]2 [DGB]2 [DGB]3 [CFA] | [CFA]2 [B,G]4 [G,DF]2 | [G,CE]2 [G,C^D]2 [G,CE]2 [G,CD]2 | %27
 [G,CE]2 [CEA]4 [E^GB]2 | [EAc]2 [DGB]2 [B,DG]2 [GB]2 | [GB]2 A2 G2 F2 | %30
[M:17/8] G-G-G-G-G-G- G3 z z z z z z z2 |] %31
V:2
 z4 z2 G,2 | G,2 G,2 D,3 D, | D,2 G,4 B,,2 | C,2 C,2 C,2 C,2 | C,2 C,4 B,,2 | A,,2 D,2 D,2 [D,D]2 | %6
 [D,D]2 [D,CD]2 [D,B,D]2 [D,A,D]2 |[M:9/8] [G,B,D]8- [G,B,D] |[M:1/4] [G,B,]2 | %9
[M:4/4][K:treble] [G,B,D]2 [G,DG]2[K:bass] D,3 D, | D,2 G,4 B,,2 | C,2 C,2 C,2 C,2 | C,2 C,4 B,,2 | %13
 A,,2 D,2 D,2 D,2 | D,2 D,2 D,2 D,2 |[M:9/8] G,8- G, |[M:4/4] C2 z2 E,2 z2 | A,,4 z4 | E,4 D,4 | %19
 G,,6 z2 | [G,B,D]2 [G,B,D]2 [G,CE]2 [G,B,D]2 | [G,CE]2 [G,B,D]2 [A,CD]2 [G,B,]2 |[M:9/8] D,8- D, | %23
[M:1/4] G,2 |[M:4/4] G,2 G,2 D,3 D, | D,2 G,4 B,,2 | C,2 C,2 C,2 C,2 | C,2 C,4 B,,2 | %28
 A,,2 D,2 D,2 [D,D]2 | [D,D]2 [D,CD]2 [D,B,D]2 [D,A,D]2 | %30
[M:17/8][K:treble] [G,B,D]-[G,B,D]-[G,B,D]-[G,B,D]-[G,B,D]-[G,B,D]- [G,B,D]3 z z z z z z z2 |] %31

